resources/svg/shape-fill.svg

<svg fill="currentColor" viewBox="0 0 24 24" xmlns="http://www.w3.org/2000/svg"><path d="M5 8C3.34315 8 2 6.65685 2 5C2 3.34315 3.34315 2 5 2C6.65685 2 8 3.34315 8 5C8 6.65685 6.65685 8 5 8ZM19 8C17.3431 8 16 6.65685 16 5C16 3.34315 17.3431 2 19 2C20.6569 2 22 3.34315 22 5C22 6.65685 20.6569 8 19 8ZM19 22C17.3431 22 16 20.6569 16 19C16 17.3431 17.3431 16 19 16C20.6569 16 22 17.3431 22 19C22 20.6569 20.6569 22 19 22ZM5 22C3.34315 22 2 20.6569 2 19C2 17.3431 3.34315 16 5 16C6.65685 16 8 17.3431 8 19C8 20.6569 6.65685 22 5 22ZM9 4H15V6H9V4ZM9 18H15V20H9V18ZM4 9H6V15H4V9ZM18 9H20V15H18V9Z"/></svg>

<svg xmlns="http://www.w3.org/2000/svg" viewBox="0 0 24 24" fill="currentColor">
    <g>
        <path fill="none" d="M0 0h24v24H0z"/>
        <path d="M5 8a3 3 0 1 1 0-6 3 3 0 0 1 0 6zm14 0a3 3 0 1 1 0-6 3 3 0 0 1 0 6zm0 14a3 3 0 1 1 0-6 3 3 0 0 1 0 6zM5 22a3 3 0 1 1 0-6 3 3 0 0 1 0 6zM9 4h6v2H9V4zm0 14h6v2H9v-2zM4 9h2v6H4V9zm14 0h2v6h-2V9z"/>
    </g>
</svg>
